U-commodities/img/partners/vadafon.svg

<svg width="160" height="40" viewBox="0 0 160 40" fill="none" xmlns="http://www.w3.org/2000/svg">
<path fill-rule="evenodd" clip-rule="evenodd" d="M40.4359 20C40.4359 30.6322 31.8197 39.2519 21.1875 39.2519C10.5552 39.2519 1.93555 30.6322 1.93555 20C1.93555 9.36773 10.5552 0.748047 21.1875 0.748047C31.8197 0.748047 40.4359 9.36773 40.4359 20ZM21.3394 30.7348C16.0516 30.7527 10.548 26.2392 10.5233 18.9884C10.5056 14.1957 13.0947 9.57993 16.3982 6.84229C19.624 4.17539 24.0417 2.45993 28.0456 2.44578C28.562 2.44578 29.1032 2.48815 29.4321 2.60134C25.9305 3.32644 23.1433 6.58754 23.1539 10.2837C23.1539 10.4074 23.1644 10.5383 23.1786 10.5985C29.0394 12.0275 31.6992 15.5645 31.7169 20.4561C31.731 25.3514 27.8687 30.7135 21.3394 30.7348Z" fill="#64708B"/>
<path d="M114.233 11.4935C114.572 11.5998 114.799 11.6848 114.915 11.7412L115.322 8.74187C115.227 8.68173 114.891 8.57216 114.318 8.40584C113.745 8.23952 113.023 8.15816 112.149 8.15816C111.488 8.15816 110.876 8.25004 110.31 8.43408C109.748 8.61801 109.256 8.91156 108.839 9.31125C108.421 9.70739 108.096 10.2238 107.863 10.8534C107.629 11.4865 107.512 12.2576 107.512 13.1701V13.927H105.648V16.8415H107.512V27.9725H111.127V16.8415H114.13V13.927H111.099V13.2585C111.099 12.5794 111.269 12.0878 111.608 11.7872C111.948 11.4866 112.372 11.3344 112.874 11.3344C113.44 11.3344 113.89 11.3875 114.233 11.4935Z" fill="#64708B"/>
<path fill-rule="evenodd" clip-rule="evenodd" d="M86.5273 26.8971L86.6723 27.9724H89.9935V8.53653H86.3823V13.9835C85.5298 13.7146 84.734 13.5768 83.9983 13.5768C82.8771 13.5768 81.8973 13.789 81.0661 14.2064C80.2314 14.6237 79.5417 15.1755 78.9864 15.8652C78.4346 16.5549 78.0243 17.3366 77.752 18.2102C77.4832 19.0839 77.3487 19.9788 77.3487 20.8913C77.3487 21.864 77.4796 22.7977 77.7378 23.6891C77.9995 24.5839 78.3851 25.3727 78.8873 26.0518C79.3896 26.7309 80.0086 27.2756 80.7478 27.6823C81.48 28.0892 82.3359 28.2943 83.3015 28.2943C84.0372 28.2943 84.6774 28.1527 85.2186 27.8698C85.7633 27.5904 86.1983 27.265 86.5273 26.8971ZM84.4369 16.608C85.0382 16.608 85.6855 16.7459 86.3823 17.0183L86.3823 23.9791C86.1877 24.308 85.8588 24.598 85.3954 24.8421C84.9321 25.0827 84.4793 25.2064 84.0337 25.2064C83.4925 25.2064 83.0221 25.0826 82.626 24.8421C82.2298 24.5981 81.9009 24.2762 81.6427 23.8765C81.3809 23.4769 81.1864 23.0064 81.0626 22.4723C80.9352 21.9347 80.8716 21.3759 80.8716 20.7923C80.8716 20.2653 80.9459 19.7524 81.0909 19.2572C81.2359 18.7585 81.4517 18.3093 81.7417 17.9096C82.0317 17.5099 82.3996 17.195 82.8452 16.9617C83.2874 16.7284 83.8215 16.608 84.4369 16.608Z" fill="#64708B"/>
<path fill-rule="evenodd" clip-rule="evenodd" d="M75.106 23.5915C75.3854 22.7072 75.5269 21.8088 75.5269 20.8928C75.5269 19.9802 75.3854 19.0889 75.106 18.2117C74.8231 17.338 74.4022 16.5564 73.8362 15.8667C73.2738 15.177 72.5735 14.6252 71.7388 14.2078C70.9041 13.7905 69.9208 13.5782 68.796 13.5782C67.6677 13.5782 66.6809 13.7904 65.8391 14.2078C64.9937 14.6252 64.2934 15.177 63.7381 15.8667C63.1863 16.5564 62.7689 17.338 62.486 18.2117C62.2065 19.0889 62.0651 19.9802 62.0651 20.8928C62.0651 21.8088 62.2065 22.7073 62.486 23.5915C62.7689 24.4757 63.1863 25.2645 63.7381 25.9648C64.2934 26.6651 64.9937 27.2276 65.8391 27.6555C66.6809 28.0834 67.6677 28.2957 68.796 28.2957C69.9208 28.2957 70.9076 28.0835 71.7529 27.6555C72.5983 27.2275 73.2986 26.6651 73.8504 25.9648C74.4057 25.2645 74.8231 24.4757 75.106 23.5915ZM71.7671 19.2114C71.9051 19.7384 71.9722 20.2938 71.9722 20.8774C71.9722 21.4822 71.905 22.0445 71.7671 22.5609C71.6327 23.0774 71.4275 23.5301 71.1552 23.9192C70.8828 24.3083 70.5539 24.6159 70.1648 24.8423C69.7757 25.0651 69.3195 25.1784 68.796 25.1784C68.2725 25.1784 67.8092 25.0651 67.413 24.8423C67.0133 24.6159 66.6809 24.3083 66.4191 23.9192C66.1574 23.5301 65.9593 23.0774 65.8249 22.5609C65.6869 22.0445 65.6197 21.4822 65.6197 20.8774C65.6197 20.2938 65.687 19.7384 65.8249 19.2114C65.9593 18.6844 66.1645 18.2317 66.4368 17.8532C66.7056 17.4712 67.0381 17.1705 67.4272 16.9477C67.8127 16.7214 68.2725 16.6082 68.796 16.6082C69.3195 16.6082 69.7757 16.7214 70.1648 16.9477C70.5539 17.1706 70.8828 17.4712 71.1552 17.8532C71.4275 18.2317 71.6327 18.6844 71.7671 19.2114Z" fill="#64708B"/>
<path d="M52.8689 27.9725L46.9833 13.9271H50.8281L54.4995 23.2542L58.0577 13.9271H61.7291L56.0169 27.9725H52.8689Z" fill="#64708B"/>
<path fill-rule="evenodd" clip-rule="evenodd" d="M100.314 26.9115L100.456 27.962H103.752V18.9355C103.752 17.9841 103.621 17.1741 103.36 16.5056C103.094 15.8336 102.73 15.2818 102.267 14.8468C101.8 14.4082 101.244 14.0898 100.604 13.8847C99.964 13.6797 99.253 13.577 98.4749 13.577C97.817 13.577 97.1981 13.6406 96.6251 13.7679C96.0521 13.8953 95.5392 14.0508 95.0829 14.2348C94.6231 14.4188 94.2376 14.6098 93.9157 14.8043C93.5938 14.9989 93.3569 15.1617 93.2012 15.2995L94.3968 17.832C94.5347 17.7153 94.7151 17.5844 94.9379 17.4394C95.1643 17.2944 95.4225 17.1494 95.716 17.0008C96.0096 16.8559 96.3386 16.7355 96.71 16.64C97.0813 16.5409 97.474 16.4914 97.8842 16.4914C98.5846 16.4914 99.1363 16.6576 99.536 16.9866C99.9392 17.319 100.137 17.8709 100.137 18.649V18.8541C99.7659 18.8931 99.3026 18.9354 98.7473 18.985C98.192 19.0345 97.6791 19.1054 97.2122 19.2008C96.5508 19.3175 95.9141 19.4946 95.3128 19.7279C94.708 19.9613 94.1704 20.2619 93.7035 20.6298C93.2331 21.0012 92.8652 21.4504 92.5929 21.9845C92.317 22.5186 92.1826 23.1376 92.1826 23.8343C92.1826 24.5347 92.3135 25.1607 92.5787 25.716C92.8405 26.2713 93.1871 26.7347 93.6151 27.1131C94.0431 27.4916 94.5347 27.7853 95.0935 27.9868C95.6453 28.1918 96.2289 28.2945 96.8337 28.2945C97.5553 28.2945 98.2167 28.1707 98.8215 27.9267C99.4264 27.6826 99.9215 27.343 100.314 26.9115ZM98.963 21.4893C99.3733 21.4434 99.7765 21.4072 100.166 21.3867V24.2447C99.8543 24.5347 99.4759 24.7787 99.0373 24.9733C98.5987 25.1678 98.1424 25.2633 97.672 25.2633C97.046 25.2633 96.5649 25.1218 96.2218 24.8424C95.8788 24.5595 95.709 24.1845 95.709 23.7212C95.709 23.272 95.8611 22.8617 96.1617 22.4797C96.4659 22.1012 97.0071 21.8359 97.7923 21.6803C98.1636 21.6025 98.5527 21.5389 98.963 21.4893Z" fill="#64708B"/>
<path fill-rule="evenodd" clip-rule="evenodd" d="M128.32 20.8928C128.32 21.8088 128.179 22.7072 127.896 23.5915C127.616 24.4757 127.199 25.2645 126.644 25.9648C126.092 26.6651 125.392 27.2275 124.546 27.6555C123.701 28.0835 122.714 28.2957 121.589 28.2957C120.461 28.2957 119.474 28.0834 118.632 27.6555C117.787 27.2276 117.087 26.6651 116.531 25.9648C115.98 25.2645 115.562 24.4757 115.279 23.5915C114.996 22.7073 114.858 21.8088 114.858 20.8928C114.858 19.9802 114.996 19.0889 115.279 18.2117C115.562 17.338 115.98 16.5564 116.531 15.8667C117.087 15.177 117.787 14.6252 118.632 14.2078C119.474 13.7904 120.461 13.5782 121.589 13.5782C122.714 13.5782 123.697 13.7905 124.532 14.2078C125.367 14.6252 126.067 15.177 126.63 15.8667C127.196 16.5564 127.616 17.338 127.896 18.2117C128.179 19.0889 128.32 19.9802 128.32 20.8928ZM124.766 20.8774C124.766 20.2938 124.695 19.7384 124.56 19.2114C124.426 18.6844 124.221 18.2317 123.949 17.8532C123.676 17.4712 123.347 17.1706 122.958 16.9477C122.569 16.7214 122.113 16.6082 121.589 16.6082C121.066 16.6082 120.606 16.7214 120.221 16.9477C119.831 17.1705 119.499 17.4712 119.227 17.8532C118.958 18.2317 118.753 18.6844 118.615 19.2114C118.48 19.7384 118.413 20.2938 118.413 20.8774C118.413 21.4822 118.48 22.0445 118.615 22.5609C118.753 23.0774 118.951 23.5301 119.212 23.9192C119.474 24.3083 119.807 24.6159 120.203 24.8423C120.603 25.0651 121.066 25.1784 121.589 25.1784C122.113 25.1784 122.569 25.0651 122.958 24.8423C123.347 24.6159 123.676 24.3083 123.949 23.9192C124.221 23.5301 124.426 23.0774 124.56 22.5609C124.695 22.0445 124.766 21.4822 124.766 20.8774Z" fill="#64708B"/>
<path d="M139.536 27.9726V19.9613C139.536 18.8931 139.313 18.0654 138.867 17.4818C138.418 16.9018 137.799 16.6082 137 16.6082C136.438 16.6082 135.918 16.7532 135.444 17.0467C134.966 17.3368 134.552 17.6587 134.202 18.0088V27.9726H130.591V13.9271H133.884L134.057 15.0342C134.623 14.5709 135.256 14.2101 135.967 13.959C136.675 13.7043 137.389 13.5805 138.107 13.5805C138.846 13.5805 139.525 13.6901 140.148 13.913C140.77 14.1394 141.304 14.493 141.75 14.9776C142.199 15.4622 142.542 16.0953 142.786 16.8699C143.027 17.6481 143.151 18.5818 143.151 19.6677V27.9726H139.536Z" fill="#64708B"/>
<path fill-rule="evenodd" clip-rule="evenodd" d="M148.945 21.8534C149.022 23.0383 149.39 23.8943 150.055 24.4177C150.717 24.9412 151.576 25.2065 152.627 25.2065C153.115 25.2065 153.575 25.1605 154.003 25.0756C154.431 24.9873 154.813 24.8774 155.145 24.7396C155.478 24.6051 155.76 24.4672 155.994 24.3328C156.227 24.195 156.401 24.0675 156.521 23.9508L157.483 26.8971C157.345 26.9926 157.126 27.1235 156.825 27.2897C156.524 27.4561 156.15 27.6081 155.704 27.7566C155.258 27.9016 154.731 28.0254 154.13 28.1351C153.529 28.2411 152.867 28.2942 152.149 28.2942C151.233 28.2942 150.367 28.1492 149.539 27.8592C148.715 27.5656 147.99 27.1129 147.371 26.501C146.748 25.8891 146.253 25.1286 145.885 24.2161C145.514 23.3035 145.33 22.2141 145.33 20.9514C145.33 19.7665 145.5 18.716 145.839 17.8035C146.179 16.8909 146.646 16.1234 147.236 15.5009C147.831 14.8819 148.52 14.4044 149.305 14.0719C150.094 13.743 150.932 13.5767 151.827 13.5767C152.722 13.5767 153.546 13.7253 154.307 14.0153C155.064 14.3053 155.718 14.7581 156.273 15.37C156.825 15.9819 157.264 16.7742 157.582 17.7468C157.904 18.716 158.063 19.8726 158.063 21.2131V21.8533L148.945 21.8534ZM154.392 19.2608C154.353 18.7762 154.25 18.3517 154.084 17.9945C153.918 17.6337 153.713 17.3437 153.468 17.1209C153.224 16.8945 152.963 16.7318 152.68 16.6221C152.393 16.5161 152.107 16.463 151.813 16.463C151.187 16.463 150.593 16.6963 150.027 17.1634C149.461 17.6302 149.129 18.327 149.03 19.2608H154.392Z" fill="#64708B"/>
</svg>

<svg width="160" height="40" fill="none" xmlns="http://www.w3.org/2000/svg"><path fill-rule="evenodd" clip-rule="evenodd" d="M40.436 20c0 10.632-8.616 19.252-19.248 19.252-10.633 0-19.252-8.62-19.252-19.252S10.556.748 21.188.748 40.436 9.368 40.436 20zM21.339 30.735c-5.287.018-10.791-4.496-10.816-11.747-.017-4.792 2.572-9.408 5.875-12.146 3.226-2.667 7.644-4.382 11.648-4.396.516 0 1.057.042 1.386.155-3.502.725-6.289 3.987-6.278 7.683 0 .123.01.254.025.314 5.86 1.43 8.52 4.966 8.538 9.858.014 4.895-3.848 10.258-10.378 10.279z" fill="#64708B"/><path d="M114.233 11.493c.339.107.566.192.682.248l.407-3c-.095-.06-.431-.169-1.004-.335s-1.295-.248-2.169-.248a5.91 5.91 0 00-1.839.276 3.815 3.815 0 00-1.471.877c-.418.396-.743.913-.976 1.542-.234.633-.351 1.405-.351 2.317v.757h-1.864v2.915h1.864v11.13h3.615v-11.13h3.003v-2.915h-3.031v-.668c0-.68.17-1.171.509-1.472.34-.3.764-.453 1.266-.453.566 0 1.016.053 1.359.16z" fill="#64708B"/><path fill-rule="evenodd" clip-rule="evenodd" d="M86.527 26.897l.145 1.075h3.322V8.537h-3.612v5.446c-.852-.268-1.648-.406-2.384-.406-1.12 0-2.1.212-2.932.63a6.164 6.164 0 00-2.08 1.658 7.092 7.092 0 00-1.234 2.345 9.073 9.073 0 00-.403 2.681c0 .973.13 1.907.389 2.798a7.462 7.462 0 001.15 2.363 5.719 5.719 0 001.86 1.63c.732.407 1.588.612 2.553.612.736 0 1.376-.141 1.918-.424.544-.28.98-.605 1.308-.973zm-2.09-10.289c.601 0 1.249.138 1.945.41v6.961c-.194.329-.523.619-.987.863-.463.24-.916.364-1.361.364-.541 0-1.012-.123-1.408-.364a3.086 3.086 0 01-.983-.965 4.33 4.33 0 01-.58-1.405 7.255 7.255 0 01-.191-1.68c0-.527.074-1.04.219-1.535.145-.498.36-.948.65-1.347.29-.4.659-.715 1.104-.948.442-.234.977-.354 1.592-.354zm-9.331 6.983c.28-.884.42-1.782.42-2.698 0-.913-.14-1.804-.42-2.681a7.106 7.106 0 00-1.27-2.345 6.303 6.303 0 00-2.097-1.66c-.835-.417-1.818-.629-2.943-.629-1.128 0-2.115.212-2.957.63a6.143 6.143 0 00-2.1 1.659 7.333 7.333 0 00-1.253 2.345 8.771 8.771 0 00-.42 2.68 8.9 8.9 0 00.42 2.7c.283.884.7 1.673 1.252 2.373a6.224 6.224 0 002.101 1.69c.842.428 1.829.64 2.957.64 1.125 0 2.112-.212 2.957-.64a6.178 6.178 0 002.097-1.69c.556-.7.973-1.49 1.256-2.373zm-3.339-4.38c.138.527.205 1.083.205 1.666 0 .605-.067 1.168-.205 1.684-.134.516-.34.97-.612 1.358-.272.39-.601.697-.99.923-.39.223-.846.336-1.369.336-.524 0-.987-.113-1.383-.336a2.918 2.918 0 01-.994-.923 4.396 4.396 0 01-.594-1.358 6.513 6.513 0 01-.205-1.684c0-.583.067-1.139.205-1.666.134-.527.34-.98.612-1.358a3.05 3.05 0 01.99-.905c.386-.227.845-.34 1.369-.34.523 0 .98.113 1.369.34.389.223.718.523.99.905.272.379.478.831.612 1.358z" fill="#64708B"/><path d="M52.869 27.973l-5.886-14.046h3.845l3.671 9.327 3.559-9.327h3.671l-5.712 14.046h-3.148z" fill="#64708B"/><path fill-rule="evenodd" clip-rule="evenodd" d="M100.314 26.912l.142 1.05h3.296v-9.026c0-.952-.131-1.762-.392-2.43-.266-.672-.63-1.224-1.093-1.66a4.315 4.315 0 00-1.663-.961 6.96 6.96 0 00-2.13-.308c-.657 0-1.276.064-1.849.19a9.833 9.833 0 00-1.542.468c-.46.184-.845.375-1.167.57a5.147 5.147 0 00-.715.495l1.196 2.532c.138-.117.318-.248.54-.393.227-.145.486-.29.779-.438.294-.145.623-.266.994-.361.371-.1.764-.149 1.174-.149.7 0 1.252.167 1.652.496.403.332.601.884.601 1.662v.205c-.371.04-.834.081-1.39.131-.555.05-1.068.12-1.535.216-.661.116-1.298.294-1.9.527a6.172 6.172 0 00-1.608.902c-.47.371-.839.82-1.111 1.355-.276.534-.41 1.153-.41 1.85 0 .7.13 1.326.396 1.881a4.266 4.266 0 001.036 1.397c.428.379.92.672 1.479.874a4.97 4.97 0 001.74.308c.721 0 1.383-.124 1.987-.368a4.006 4.006 0 001.493-1.015zm-1.351-5.423c.41-.046.814-.082 1.203-.102v2.858c-.312.29-.69.534-1.129.728-.438.195-.895.29-1.365.29-.626 0-1.107-.141-1.45-.42-.343-.284-.513-.659-.513-1.122 0-.449.152-.86.453-1.241.304-.379.845-.644 1.63-.8.372-.078.76-.141 1.171-.19zm29.357-.596c0 .916-.141 1.814-.424 2.698a7.355 7.355 0 01-1.252 2.374 6.176 6.176 0 01-2.098 1.69c-.845.428-1.832.64-2.957.64-1.128 0-2.115-.212-2.957-.64a6.235 6.235 0 01-2.101-1.69 7.494 7.494 0 01-1.252-2.373 8.793 8.793 0 010-5.38 7.35 7.35 0 011.252-2.345 6.153 6.153 0 012.101-1.66c.842-.417 1.829-.629 2.957-.629 1.125 0 2.108.213 2.943.63a6.3 6.3 0 012.098 1.659c.566.69.986 1.471 1.266 2.345a8.67 8.67 0 01.424 2.68zm-3.554-.016a6.69 6.69 0 00-.206-1.666 3.987 3.987 0 00-.611-1.358 3.106 3.106 0 00-.991-.905c-.389-.227-.845-.34-1.369-.34-.523 0-.983.113-1.368.34-.39.223-.722.523-.994.905a4.127 4.127 0 00-.612 1.358 6.69 6.69 0 00-.202 1.666c0 .605.067 1.168.202 1.684.138.516.336.97.597 1.358.262.39.595.697.991.923.4.223.863.336 1.386.336.524 0 .98-.113 1.369-.336.389-.226.718-.534.991-.923.272-.389.477-.842.611-1.358a6.645 6.645 0 00.206-1.684z" fill="#64708B"/><path d="M139.536 27.973V19.96c0-1.068-.223-1.896-.669-2.48-.449-.58-1.068-.873-1.867-.873a2.9 2.9 0 00-1.556.439c-.478.29-.892.612-1.242.962v9.964h-3.611V13.927h3.293l.173 1.107a6.302 6.302 0 011.91-1.075 6.28 6.28 0 012.14-.378c.739 0 1.418.11 2.041.332.622.226 1.156.58 1.602 1.065.449.484.792 1.117 1.036 1.892.241.778.365 1.712.365 2.798v8.305h-3.615z" fill="#64708B"/><path fill-rule="evenodd" clip-rule="evenodd" d="M148.945 21.853c.077 1.185.445 2.041 1.11 2.565.662.523 1.521.788 2.572.788.488 0 .948-.046 1.376-.13.428-.089.81-.199 1.142-.336.333-.135.615-.273.849-.407.233-.138.407-.265.527-.382l.962 2.946a6.773 6.773 0 01-1.779.86 12.34 12.34 0 01-1.574.378c-.601.106-1.263.16-1.981.16a7.821 7.821 0 01-2.61-.436 5.834 5.834 0 01-2.168-1.358c-.623-.612-1.118-1.372-1.486-2.285-.371-.913-.555-2.002-.555-3.265 0-1.184.17-2.235.509-3.148.34-.912.807-1.68 1.397-2.302a6.196 6.196 0 012.069-1.43 6.48 6.48 0 012.522-.494c.895 0 1.719.148 2.48.438.757.29 1.411.743 1.966 1.355.552.612.991 1.404 1.309 2.377.322.969.481 2.126.481 3.466v.64h-9.118zm5.447-2.592a3.706 3.706 0 00-.308-1.267 2.665 2.665 0 00-.616-.873 2.448 2.448 0 00-.788-.499 2.474 2.474 0 00-.867-.159c-.626 0-1.22.233-1.786.7-.566.467-.898 1.164-.997 2.098h5.362z" fill="#64708B"/></svg>
